X: 23
T:Mr. Key's Hornpipe
M:3/2
L:1/4
S:Marsden
N:KS of G major might be better. Given here as printe
Z:ps
K:D
cABA/G/A2 | cA2cAd | cABA/G/A2 | DA2cBd || 
ced/e/f/d/e2 | cA2cBd | ced/e/f/d/e2 | BG2cBd || 
A/B/ c/A/BA/G/A2 | EA2cBd | A/B/ c/A/BA/G/A2 | EG2cBd || 
c/d/e/c/ d/e/f/d/ e/f/g/e/ | aA2cBd | c/d/e/c/ d/e/f/d/ e/f/g/e/ | BG2cBd || 
ag/f/ g/a/ba2 | cA2cBd | ag/f/ g/a/ ba2 | gg2GBd || 
c/A/ c/A/ G/E/ G/E/ A/F/ A/F/ | dA2cBd | c/A/ c/A/ B/G/ B/G/ A/F/ A/F/ | DG2c Bd || 
A,AG/A/ B/G/AA, | A,AA,/B,/C/A,/B,G, | A,AG/A/ B/G/ AF | G/D/ G/D/ G/D/ G/D/ A,G, || 
AEA,ACA, | AEA,/B,/C/A,/B,A,/G,/ | AEA,ACB,/A,/ | GE2cB/c/d/B/ || 

